!!!OTL: ICH SOLLT EINMAL DEN BERG UMGEHN
!!!ARE: Europa, Mitteleuropa, Deutschland; Rumaenien, Siebenbuergen
!!!SCT: E0877
!!!YEM: Copyright 1995, estate of Helmut Schaffrath.
**kern
*ICvox
*Ivox
*M4/4
*k[f#]
*G:
{4d
=1
4g
4g
4f#
4f#
=2
4e
4e
4d}
{4d
=3
4g
4g
4f#
4f#
=4
4e
4e
4d}
{4d
=5
4a
4a
4g
4g
=6
4f#
4f#
4e
8r}
{8d
=7
8e
8d
8e
8f#
4g
8g
8a
=8
8b
8g
8a
8f#
4g}
==
!!!AGN: Hochzeits -, Ehestands - Lied
!!!ONB: ESAC (Essen Associative Code) Database: ERK2
!!!AMT: simple quadruple
!!!AIN: vox
!!!EED: Helmut Schaffrath
!!!EEV: 1.0
*-
